package/converter/svg/duotone/arrow-left-from-line.svg

<svg xmlns="http://www.w3.org/2000/svg" viewBox="0 0 448 512"><!-- Font Awesome Pro 6.0.0-alpha2 by @fontawesome - https://fontawesome.com License - https://fontawesome.com/license (Commercial License) --><defs><style>.fa-secondary{opacity:.4}</style></defs><path d="M384 96V416C384 433.688 398.312 448 416 448S448 433.688 448 416V96C448 78.312 433.688 64 416 64S384 78.312 384 96Z" class="fa-secondary"/><path d="M182.625 406.625C170.125 419.125 149.875 419.125 137.375 406.625L9.375 278.625C-3.125 266.125 -3.125 245.875 9.375 233.375L137.375 105.375C149.875 92.875 170.125 92.875 182.625 105.375C188.875 111.625 192 119.812 192 128S188.875 144.375 182.625 150.625L109.25 224H288C305.688 224 320 238.312 320 256S305.688 288 288 288H109.25L182.625 361.375C195.125 373.875 195.125 394.125 182.625 406.625Z" class="fa-primary"/></svg>

<svg xmlns="http://www.w3.org/2000/svg" viewBox="0 0 448 512"><!--! Font Awesome Pro 6.6.0 by @fontawesome - https://fontawesome.com License - https://fontawesome.com/license (Commercial License) Copyright 2024 Fonticons, Inc. --><defs><style>.fa-secondary{opacity:.4}</style></defs><path class="fa-secondary" d="M384 96l0 320c0 17.7 14.3 32 32 32s32-14.3 32-32l0-320c0-17.7-14.3-32-32-32s-32 14.3-32 32z"/><path class="fa-primary" d="M9.4 278.6c-12.5-12.5-12.5-32.8 0-45.3l128-128c12.5-12.5 32.8-12.5 45.3 0s12.5 32.8 0 45.3L109.3 224l66.7 0 112 0c17.7 0 32 14.3 32 32s-14.3 32-32 32l-112 0-66.7 0 73.4 73.4c12.5 12.5 12.5 32.8 0 45.3s-32.8 12.5-45.3 0l-128-128z"/></svg>
